X: 11103
T: Duggan's Favourite
R: jig
M: 6/8
K: Dmajor
|:A2F DFA|Bee Bee|d2B AFA|Bcd edB|
A2F DFA|B2e ede|faf ede|1 fdc dcB:|2 fdc d2f||
|:a2f dfa|b2e ede|f2f d2f|~g3 efg|
a2f dfa|b2e ede|faf ede|1 fdc d2f:|2 fdc dcB||

